src/assets/outline/Camera.svg

<svg width="24" height="24" viewBox="0 0 24 24"  xmlns="http://www.w3.org/2000/svg">
<path d="M17.2402 22.75H6.76017C3.96017 22.75 2.18017 21.08 2.02017 18.29L1.50017 10.04C1.42017 8.79 1.85017 7.59 2.71017 6.68C3.56017 5.77 4.76017 5.25 6.00017 5.25C6.32017 5.25 6.63017 5.06 6.78017 4.76L7.50017 3.33C8.09017 2.16 9.57017 1.25 10.8602 1.25H13.1502C14.4402 1.25 15.9102 2.16 16.5002 3.32L17.2202 4.78C17.3702 5.06 17.6702 5.25 18.0002 5.25C19.2402 5.25 20.4402 5.77 21.2902 6.68C22.1502 7.6 22.5802 8.79 22.5002 10.04L21.9802 18.3C21.8002 21.13 20.0702 22.75 17.2402 22.75ZM10.8602 2.75C10.1202 2.75 9.18017 3.33 8.84017 4L8.12017 5.44C7.70017 6.25 6.89017 6.75 6.00017 6.75C5.16017 6.75 4.38017 7.09 3.80017 7.7C3.23017 8.31 2.94017 9.11 3.00017 9.94L3.52017 18.2C3.64017 20.22 4.73017 21.25 6.76017 21.25H17.2402C19.2602 21.25 20.3502 20.22 20.4802 18.2L21.0002 9.94C21.0502 9.11 20.7702 8.31 20.2002 7.7C19.6202 7.09 18.8402 6.75 18.0002 6.75C17.1102 6.75 16.3002 6.25 15.8802 5.46L15.1502 4C14.8202 3.34 13.8802 2.76 13.1402 2.76H10.8602V2.75Z" />
<path d="M13.5 8.75H10.5C10.09 8.75 9.75 8.41 9.75 8C9.75 7.59 10.09 7.25 10.5 7.25H13.5C13.91 7.25 14.25 7.59 14.25 8C14.25 8.41 13.91 8.75 13.5 8.75Z" />
<path d="M12 18.75C9.79 18.75 8 16.96 8 14.75C8 12.54 9.79 10.75 12 10.75C14.21 10.75 16 12.54 16 14.75C16 16.96 14.21 18.75 12 18.75ZM12 12.25C10.62 12.25 9.5 13.37 9.5 14.75C9.5 16.13 10.62 17.25 12 17.25C13.38 17.25 14.5 16.13 14.5 14.75C14.5 13.37 13.38 12.25 12 12.25Z" />
</svg>

<?xml version="1.0" encoding="UTF-8"?>
<svg width="24" height="24" viewBox="0 0 24 24" xmlns="http://www.w3.org/2000/svg">
 <path d="m17.24 22.75h-10.48c-2.8 0-4.58-1.67-4.74-4.46l-0.52-8.25c-0.08-1.25 0.35-2.45 1.21-3.36 0.85-0.91 2.05-1.43 3.29-1.43 0.32 0 0.63-0.19 0.78-0.49l0.72-1.43c0.59-1.17 2.07-2.08 3.36-2.08h2.29c1.29 0 2.76 0.91 3.35 2.07l0.72 1.46c0.15 0.28 0.45 0.47 0.78 0.47 1.24 0 2.44 0.52 3.29 1.43 0.86 0.92 1.29 2.11 1.21 3.36l-0.52 8.26c-0.18 2.83-1.91 4.45-4.74 4.45zm-6.38-20c-0.74 0-1.68 0.58-2.02 1.25l-0.72 1.44c-0.42 0.81-1.23 1.31-2.12 1.31-0.84 0-1.62 0.34-2.2 0.95-0.57 0.61-0.86 1.41-0.8 2.24l0.52 8.26c0.12 2.02 1.21 3.05 3.24 3.05h10.48c2.02 0 3.11-1.03 3.24-3.05l0.52-8.26c0.05-0.83-0.23-1.63-0.8-2.24-0.58-0.61-1.36-0.95-2.2-0.95-0.89 0-1.7-0.5-2.12-1.29l-0.73-1.46c-0.33-0.66-1.27-1.24-2.01-1.24h-2.28v-0.01z"/>
 <path d="m13.5 8.75h-3c-0.41 0-0.75-0.34-0.75-0.75s0.34-0.75 0.75-0.75h3c0.41 0 0.75 0.34 0.75 0.75s-0.34 0.75-0.75 0.75z"/>
 <path d="m12 18.75c-2.21 0-4-1.79-4-4s1.79-4 4-4 4 1.79 4 4-1.79 4-4 4zm0-6.5c-1.38 0-2.5 1.12-2.5 2.5s1.12 2.5 2.5 2.5 2.5-1.12 2.5-2.5-1.12-2.5-2.5-2.5z"/>
</svg>
